svg/material-icons/emoji_objects/materialiconsround/20px.svg

<svg xmlns="http://www.w3.org/2000/svg" width="20" height="20" viewBox="0 0 20 20"><path d="M14.91 7.07c-.01-.04-.01-.08-.02-.12-.06-.28-.15-.56-.26-.82-.02-.05-.04-.09-.06-.14-.11-.26-.25-.5-.4-.74-.03-.04-.05-.08-.08-.11a4.28 4.28 0 0 0-.55-.66l-.05-.05c-.2-.2-.42-.38-.66-.54-.02-.02-.04-.03-.06-.05-.24-.16-.49-.29-.75-.41-.04-.02-.09-.04-.13-.06-.26-.11-.53-.19-.81-.25l-.15-.03c-.29-.05-.59-.08-.89-.09H10c-.1 0-.21.01-.31.02-.06 0-.12 0-.18.01-.2.01-.39.04-.58.08-1.94.4-3.49 2-3.84 3.95-.31 1.72.26 3.3 1.33 4.4.36.38.58.88.58 1.41v2.14c0 .55.45 1 1 1h.28a1.98 1.98 0 0 0 3.44 0H12c.55 0 1-.45 1-1v-2.13c0-.52.21-1.02.58-1.4C14.45 10.57 15 9.35 15 8c0-.32-.04-.63-.09-.93zm-6.18-.34L10 8l1.27-1.27.71.71-1.48 1.47V11h-1V8.91L8.03 7.44l.7-.71zM11.5 15h-3c-.28 0-.5-.22-.5-.5s.22-.5.5-.5h3c.28 0 .5.22.5.5s-.22.5-.5.5zm0-2h-3c-.28 0-.5-.22-.5-.5s.22-.5.5-.5h3c.28 0 .5.22.5.5s-.22.5-.5.5z"/></svg>

<svg xmlns="http://www.w3.org/2000/svg" enable-background="new 0 0 20 20" height="20" viewBox="0 0 20 20" width="20"><g><rect fill="none" height="20" width="20"/></g><g><g/><path d="M14.91,7.07c-0.01-0.04-0.01-0.08-0.02-0.12c-0.06-0.28-0.15-0.56-0.26-0.82c-0.02-0.05-0.04-0.09-0.06-0.14 c-0.11-0.26-0.25-0.5-0.4-0.74c-0.03-0.04-0.05-0.08-0.08-0.11c-0.16-0.23-0.34-0.46-0.55-0.66c-0.02-0.02-0.03-0.03-0.05-0.05 c-0.2-0.2-0.42-0.38-0.66-0.54c-0.02-0.02-0.04-0.03-0.06-0.05c-0.24-0.16-0.49-0.29-0.75-0.41c-0.04-0.02-0.09-0.04-0.13-0.06 c-0.26-0.11-0.53-0.19-0.81-0.25c-0.05-0.01-0.1-0.02-0.15-0.03C10.64,3.04,10.34,3.01,10.04,3C10.03,3,10.01,3,10,3 C9.9,3,9.79,3.01,9.69,3.02c-0.06,0-0.12,0-0.18,0.01C9.31,3.04,9.12,3.07,8.93,3.11c-1.94,0.4-3.49,2-3.84,3.95 c-0.31,1.72,0.26,3.3,1.33,4.4C6.78,11.84,7,12.34,7,12.87c0,0.77,0,1.6,0,2.14c0,0.55,0.45,1,1,1h0.28l0,0c0.35,0.6,0.98,1,1.72,1 s1.38-0.4,1.72-1l0,0H12c0.55,0,1-0.45,1-1v-2.13c0-0.52,0.21-1.02,0.58-1.4C14.45,10.57,15,9.35,15,8 C15,7.68,14.96,7.37,14.91,7.07z M8.73,6.73L10,8l1.27-1.27l0.71,0.71L10.5,8.91V11h-1V8.91L8.03,7.44L8.73,6.73z M11.5,15 C11.5,15,11.5,15,11.5,15L10,15l0,0l0,0l-1.5,0v0h0C8.22,15,8,14.78,8,14.5C8,14.22,8.22,14,8.5,14h3h0c0.28,0,0.5,0.22,0.5,0.5 C12,14.78,11.78,15,11.5,15z M11.5,13L11.5,13h-3h0C8.22,13,8,12.78,8,12.5C8,12.22,8.22,12,8.5,12h0h3h0c0.28,0,0.5,0.22,0.5,0.5 C12,12.78,11.78,13,11.5,13z"/></g></svg>
